X:1
T:Magnificat sexti toni - Soriano
T:#
%%score [ 1 2 3 4 ]
L:1/8
Q:1/4=130
M:none
K:F
V:1 treble nm="S" snm="S"
V:2 treble nm="A" snm="A"
V:3 treble-8 nm="T" snm="T"
V:4 bass nm="B" snm="B"
V:1
 x12 || z4"^Magnificat sexti toni""^Francesco Soriano\n(1549-1621)"[Q:1/4=200] F6 F2 F4 | %2
w: |A- ni- ma|
 F8 E4 (G4- | G2 F2 F8) E4 | F16 || z16 | z20 || %7
w: me- a Do\-|* * * mi-|num.|||
[Q:1/4=200][Q:1/4=200][Q:1/4=200][Q:1/4=200] A8 A4 c4 | B8 A4 A4 | A4 A4 B8 | A4 c4 B4 A4- | %11
w: Qui- a re-|spe- xit hu-|mi- li- ta-|tem an- cil- lae|
 A4 G4 A4 c4- | c4 c4 c8 |[M:4/2] d4 d4 (d4 c2 B2 | A8) z8 | z16 | z4 A8 A4 | A8 G4 A4- | %18
w: * su- ae: ec\-|* ce e-|nim ex hoc * *|||o- mnes|ge- ne- ra\-|
 A2 G2 (F8 E4) | F16 ||[Q:1/4=130][Q:1/4=130][Q:1/4=130][Q:1/4=130] z24 | z16 || %22
w: * ti- o\- *|nes.|||
[M:4/2][Q:1/4=200][Q:1/4=200][Q:1/4=200][Q:1/4=200] z16 | A6 B2 c4 A4 | d8 c4 d4 | B8 A4 A4- | %26
w: |Et mi- se- ri-|cor- di- a|e- ius a|
 A4 c4 B4 B4 | A8 G4 E4 | (F8 G6) G2 | F4 c4 d4 A4 | B4 (c4 d4 c4 | B16) | A16 || %33
w: * pro- ge- ni-|e in pro-|ge\- * ni-|es ti- men- ti-|bus e\- * *||um.|
[Q:1/4=130][Q:1/4=130][Q:1/4=130][Q:1/4=130] z22 | z20 || %35
w: ||
[M:4/2][Q:1/4=200][Q:1/4=200][Q:1/4=200][Q:1/4=200] A8 c6 c2 | c4 A4 B8 | A4 A8 G4 | A4 A4 A6 G2 | %39
w: De- po- su-|it po- ten-|tes de se-|de, et ex- al-|
 F4 F4 F4 E4 | F16 ||[Q:1/4=130][Q:1/4=130][Q:1/4=130][Q:1/4=130] z22 | z14 || %43
w: ta- vit hu- mi-|les.|||
[M:4/2][Q:1/4=200][Q:1/4=200][Q:1/4=200][Q:1/4=200] F8 F6 F2 | F4 F4 G4 A4- | %45
w: Su- sce- pit|Is- ra- el pu\-|
 A2 A2 A4 (F2 G2 A2 F2 | G8) A4 A4- | A4 A4 G8 | F4 F4 B4 B4 | B12 A4 | A4 (A8 G2 F2 | E4 F8 E4) | %52
w: * e- rum su\- * * *|* um, re\-|* cor da-|tus mi- se- ri-|cor- di-|ae su\- * *||
 F16 ||[Q:1/4=130][Q:1/4=130][Q:1/4=130][Q:1/4=130] z22 | z22 || %55
w: ae.|||
[M:3/1][Q:1/4=400][Q:1/4=400][Q:1/4=400][Q:1/4=400] A12 A4 A8 | A12 A4 A8 | B16 G8 | A8 A8 G8 | %59
w: Glo- ri- a|Pa- tri, et|Fi- li-|o, et Spi-|
 F16 F8 | F16 E8 | F24 ||[Q:1/4=130][Q:1/4=130][Q:1/4=130][Q:1/4=130] z22 | z20 || %64
w: ri- tu-|i san-|cto.|||
V:2
 x8 x2 x2 || z4 C6 C2 C4- | C4 =B,4 C8 | C12 C4 | C16 || z16 | z20 || F8 F4 F4 | (D4 E4) F4 F4 | %9
w: |A- ni- ma|* me- a|Do- mi-|num.|||Qui- a re-|spe\- * xit hu-|
 F4 F4 F8 | F4 F4 (D2 E2 F4- | F2) F2 D4 E4 F4- | F4 G4 F8 |[M:4/2] F4 F4 D4 E4 | F8 E4 F4 | %15
w: mi- li- ta-|tem an- cil\- * *|* lae su- ae: ec\-|* ce e-|nim ex hoc be-|a- tam me|
 (G2 F2 F8 E4) | F8 z4 F4- | F4 F4 D4 F4 | F4 D4 C8 | C16 || z24 | z16 ||[M:4/2] C6 D2 E4 C4 | %23
w: di\- * * *|cent o\-|* mnes ge- ne-|ra- ti- o-|nes.|||Et mi- se- ri-|
 F8 E4 F4- | F4 (G6 F2 F4- | F4 E4) F4 F4- | F4 F4 D6 E2 | F4 F4 E4 (G4- | G2 F2 F8) E4 | F12 F4 | %30
w: cor- di- a|* e\- * *|* * ius a|* pro- ge- ni-|e in pro- ge\-|* * * ni-|es ti-|
 F6 F2 F8 | F16 | F16 || z22 | z20 ||[M:4/2] F8 F6 F2 | F4 F4 F8 | F4 F4 D8 | F4 C4 F6 E2 | %39
w: men- ti- bus|e-|um.|||De- po- su-|it po- ten-|tes de se-|de, et ex- al-|
 D4 C4 D4 C4 | C16 || z22 | z14 ||[M:4/2] C8 D6 C2 | D4 F4 E4 C4- | C2 C2 C4 (D2 E2 F2 D2 | %46
w: ta- vit hu- mi-|les.|||Su- sce- pit|Is- ra- el pu\-|* e- rum su\- * * *|
 E8) F4 F4- | F4 F4 D8 | D4 D4 F4 F4 | F12 F4 | F4 (C6 =B,2 B,2 A,B, | C16) | C16 || z22 | z22 || %55
w: * um, re\-|* cor da-|tus mi- se- ri-|cor- di-|ae su\- * * * *||ae.|||
[M:3/1] F12 F4 F8 | F12 F4 F8 | F16 E8 | F8 F8 E8 | D16 D8 | A,8 C16 | C24 || z22 | z20 || %64
w: Glo- ri- a|Pa- tri, et|Fi- li-|o, et Spi-|ri- tu-|i san-|cto.|||
V:3
 F2 G2 A2 A2 A4 || A6 A2 A8 | F8 G8 | (A6 GF G4) G4 | F16 || F2 G2 A2 A2 G2 A2 F4 | %6
w: Ma- gni\- * fi- cat|A- ni- ma|me- a|Do\- * * * mi-|num.|Et ex\- * ultavit~spiri- tus me- us|
 A8 F2 G2 A2 G2 F4 || c8 c4 A4 | B8 c4 d4 | d4 d4 d8 | c4 A4 B4 c4 | d4 G4 z4 A4- | A4 G4 A8 | %13
w: in~Deo~salu- ta- ri * me- o.|Qui- a re-|spe- xit hu-|mi- li- ta-|tem an- cil- lae|su- ae: ec\-|* ce e-|
[M:4/2][K:treble-8] B4 B4 B4 c4 | d8 c4 A4 | (B6 A2 G8) | F4 c8 c4 | (d6 c2 B4) c4 | A4 B4 G8 | %19
w: nim ex hoc be-|a- tam me|di\- * *|cent o- mnes|ge\- * * ne-|ra- ti- o-|
 F16 || F2 G2 A2 A8 G2 A2 F2 F4 | A4 F2 G2 A2 G2 F4 ||[M:4/2][K:treble-8] z16 | F6 G2 A4 F4 | %24
w: nes.|~Qui- a * fecit~mihi~magna qui po- tens est:|et~sanctum no- men * e- ius.||Et mi- se- ri-|
 B8 A4 B4 | G8 F4 c4- | c4 A4 B4 B4 | c4 c8 c4 | d4 d4 (c8 | A8) z4 c4 | d4 A4 B4 (c4 | d16) | %32
w: cor- di- a|e- ius a|* pro- ge- ni-|e in pro-|ge- ni- es|* ti-|men- ti- bus e\-||
 c16 || F2 G2 A2 A8 G2 A2 F4 | A8 F2 G2 A2 G2 F4 ||[M:4/2][K:treble-8] c8 A6 A2 | A4 c4 d8 | %37
w: um.|~Fe- cit * potentiam~in~brachi- o su- o:|dispersit~superbos~mente cor- dis * su- i.|De- po- su-|it po- ten-|
 c4 c4 B8 | A4 A4 c6 c2 | A4 A4 G4 G4 | F16 || F2 G2 A2 A8 G2 A2 F4 | A2 F2 G2 A2 G2 F4 || %43
w: tes de se-|de, et ex- al-|ta- vit hu- mi-|les.|E- su\- * rientes~imple- vit bo- nis:|et~divites~dimi- sit i\- * na- nes.|
[M:4/2][K:treble-8] F8 B6 A2 | B4 d4 c4 F4- | F2 F2 F4 D8 | C4 c8 c4 | (d2 c2 c2 BA B8) | %48
w: Su- sce- pit|Is- ra- el pu\-|* e- rum su-|um, re- cor|da\- * * * * *|
 A4 A4 d4 d4 | d12 c4 | (c2 B2 A2 G2 F8) | (A4 G2 F2 G8) | F16 || F2 G2 A2 A8 G2 A2 F4 | %54
w: tus mi- se- ri-|cor- di-|ae * * * *|su\- * * *|ae.|Si- cut * locutus~est~ad~pa- tres no- stros,|
 A8 F2 G2 A2 G2 F2 F4 ||[M:3/1][K:treble-8] c12 c4 c8 | d12 d4 d8 | d16 c8 | c8 c8 c8 | A16 B8 | %60
w: Abraham~et~semini~e- ius in * sae- cu- la.|Glo- ri- a|Pa- tri, et|Fi- li-|o, et Spi-|ri- tu-|
 F8 G16 | F24 || F2 G2 A2 A8 G2 A2 F4 | A4 F2 G2 A2 G2 F8 || %64
w: i san-|cto.|Si- cut * erat~in~principio,~et~nunc, et sem- per,|et~in~saecula~saecu- lo- rum * A- men.|
V:4
 x12 || z4 F,6 F,2 F,4 | D,4 D,4 (C,2 D,2 E,2 C,2 | F,6 E,D, C,4) C,4 | F,,16 || z16 | z20 || %7
w: |A- ni- ma|me- a Do\- * * *|* * * * mi-|num.|||
 F,8 F,4 F,4 | G,8 F,4 D,4 | D,4 D,4 B,,8 | F,,4 F,4 G,4 A,4 | B,8 A,4 F,4- | F,4 E,4 F,8 | %13
w: Qui- a re-|spe- xit hu-|mi- li- ta-|tem an- cil- lae|su- ae: ec\-|* ce e-|
[M:4/2] B,,8 z8 | z16 | z16 | z4 F,8 F,4 | D,8 G,4 F,4- | F,4 B,,4 C,8 | F,,16 || z24 | z16 || %22
w: nim|||o- mnes|ge- ne- ra\-|* ti- o-|nes.|||
[M:4/2] z16 | z16 | z16 | z8 z4 F,4- | F,4 F,4 G,4 G,4 | F,8 z8 | z8 z4 C,4 | D,4 A,,4 B,,4 F,4 | %30
w: |||A|* pro- ge- ni-|e|ti-|men- ti- bus e-|
 B,,4 F,4 B,4 A,4 | B,8 B,,8 | F,16 || z22 | z20 ||[M:4/2] F,8 F,6 F,2 | F,4 F,,4 B,,8 | %37
w: um, ti- men- ti-|bus e-|um.|||De- po- su-|it po- ten-|
 F,,4 F,4 G,8 | D,4 F,4 F,6 C,2 | D,4 A,,4 B,,4 C,4 | F,,16 || z22 | z14 ||[M:4/2] z16 | z16 | %45
w: tes de se-|de, et ex- al-|ta- vit hu- mi-|les.|||||
 z16 | z8 F,8- | F,4 F,4 G,8 | D,4 D,4 B,4 B,4 | B,12 F,4 | (F,6 E,2 D,8) | C,16 | F,,16 || z22 | %54
w: |Re\-|* cor- da-|tus mi- se- ri-|cor- di-|ae * *|su-|ae.||
 z22 ||[M:3/1] F,12 F,4 F,8 | D,12 D,4 D,8 | B,,16 C,8 | F,,8 F,8 C,8 | D,16 B,,8 | D,8 C,16 | %61
w: |Glo- ri- a|Pa- tri, et|Fi- li-|o, et Spi-|ri- tu-|i san-|
 F,,24 || z22 | z20 || %64
w: cto.|||

